app/img/sprite/fb.svg

<svg width="40" height="40" viewBox="0 0 40 40" fill="none" xmlns="http://www.w3.org/2000/svg">
<path d="M25.2001 8.86688H28.3334V3.56688C26.8163 3.40912 25.292 3.33124 23.7667 3.33355C19.2334 3.33355 16.1334 6.10021 16.1334 11.1669V15.5335H11.0167V21.4669H16.1334V36.6669H22.2667V21.4669H27.3667L28.1334 15.5335H22.2667V11.7502C22.2667 10.0002 22.7334 8.86688 25.2001 8.86688Z" fill="white"/>
</svg>

<svg width="40" height="40" fill="none" xmlns="http://www.w3.org/2000/svg"><path d="M25.2 8.9h3.1V3.6l-4.5-.3c-4.6 0-7.7 2.8-7.7 7.9v4.3h-5v6h5v15.2h6.2V21.5h5l.8-6h-5.8v-3.7c0-1.8.4-3 2.9-3z" fill="#fff"/></svg>
